Suru++-Ubuntu/apps/scalable/guitarix.svg

<svg width="256" height="256" version="1.1" viewBox="0 0 67.73 67.73" xmlns="http://www.w3.org/2000/svg" xmlns:xlink="http://www.w3.org/1999/xlink">
 <defs>
  <linearGradient id="linearGradient1121">
   <stop style="stop-color:#bbbbbb" offset="0"/>
   <stop style="stop-color:#fcfcfc" offset="1"/>
  </linearGradient>
  <linearGradient id="linearGradient1115">
   <stop style="stop-color:#adadad" offset="0"/>
   <stop style="stop-color:#929292" offset="1"/>
  </linearGradient>
  <clipPath id="clipPath1082-3-5">
   <path d="M 361.9375,-212 C 507.2348,-212 528,-191.28677 528,-46.125 V 70.125 C 528,215.28618 507.2348,236 361.9375,236 H 214.0625 C 68.7652,236 48,215.28618 48,70.125 V -46.125 C 48,-191.28677 68.7652,-212 214.0625,-212 Z" style="fill:#8c59d9"/>
  </clipPath>
  <filter id="filter4569-2" x="-.01" y="-.01" width="1.023" height="1.025" style="color-interpolation-filters:sRGB">
   <feGaussianBlur stdDeviation="1.16"/>
  </filter>
  <filter id="filter913" x="-.02" y="-.03" width="1.046" height="1.05" style="color-interpolation-filters:sRGB">
   <feGaussianBlur stdDeviation="2.32"/>
  </filter>
  <linearGradient id="linearGradient906" x1="296" x2="296" y1="-212" y2="236" gradientUnits="userSpaceOnUse">
   <stop style="stop-color:#ffffff" offset="0"/>
   <stop style="stop-color:#ffffff;stop-opacity:.09803922" offset=".125"/>
   <stop style="stop-color:#000000;stop-opacity:.09803922" offset=".925"/>
   <stop style="stop-color:#000000;stop-opacity:.49803922" offset="1"/>
  </linearGradient>
  <filter id="filter2597" x="-.13" y="-.14" width="1.265" height="1.275" style="color-interpolation-filters:sRGB">
   <feGaussianBlur stdDeviation=".584"/>
  </filter>
  <linearGradient id="linearGradient3344" x1="23.869" x2="26.22" y1="17.664" y2="21.333" gradientUnits="userSpaceOnUse" xlink:href="#linearGradient1115"/>
  <linearGradient id="linearGradient997" x1="23.544" x2="27.572" y1="14.335" y2="27.696" gradientTransform="matrix(1.6534874,0,0,1.6534875,-59.700849,232.84478)" gradientUnits="userSpaceOnUse" xlink:href="#linearGradient1121"/>
  <filter id="filter1103" x="-.07" y="-.07" width="1.15" height="1.15" style="color-interpolation-filters:sRGB">
   <feGaussianBlur stdDeviation=".931"/>
  </filter>
  <filter id="filter1107" x="-.07" y="-.07" width="1.15" height="1.15" style="color-interpolation-filters:sRGB">
   <feGaussianBlur stdDeviation=".931"/>
  </filter>
  <linearGradient id="linearGradient928" x1="39.998" x2="263.998" y1="91.998" y2="91.998" gradientUnits="userSpaceOnUse">
   <stop style="stop-color:#000000;stop-opacity:.25877193" offset="0"/>
   <stop style="stop-color:#000000" offset=".491"/>
   <stop style="stop-color:#000000;stop-opacity:0" offset="1"/>
  </linearGradient>
  <clipPath id="clipPath942-3">
   <path d="m39.998047 108v113.08203c0 35.29672 3.623657 38.91992 38.992187 38.91992h146.01368c35.36853 0 38.99414-3.6232 38.99414-38.91992v-113.08203z" style="fill:url(#linearGradient946)"/>
  </clipPath>
 </defs>
 <g transform="translate(0,-229.26666)">
  <path transform="matrix(.26970778 0 0 .26970778 -7.1289177 220.56049)" d="m188.96876 45.999995c72.64865 0 83.03125 10.356615 83.03125 82.937505v58.125c0 72.58059-10.3826 82.9375-83.03125 82.9375h-73.9375c-72.648654 0-83.031254-10.35691-83.031254-82.9375v-58.125c0-72.58089 10.3826-82.937505 83.031254-82.937505z" style="filter:url(#filter913);opacity:.2"/>
  <path transform="matrix(.26970778 0 0 .26970778 -7.1289177 220.56049)" d="m188.96876 43.999995c72.64865 0 83.03125 10.356615 83.03125 82.937505v58.125c0 72.58059-10.3826 82.9375-83.03125 82.9375h-73.9375c-72.648654 0-83.031254-10.35691-83.031254-82.9375v-58.125c0-72.58089 10.3826-82.937505 83.031254-82.937505z" style="filter:url(#filter4569-2);opacity:.1"/>
  <path d="m23.895904 232.42763c-9.797337 0-15.394129 0.69699-18.544516 3.84334-3.150381 3.14634-3.849657 8.73736-3.849657 18.52555v15.67677c0 9.78815 0.699276 15.3792 3.849657 18.52555 3.150387 3.14636 8.7471782 3.84333 18.544516 3.84333h19.94152c9.797339 0 15.394134-0.69697 18.544517-3.84333 3.150384-3.14635 3.849659-8.7374 3.849659-18.52555v-15.67677c0-9.78819-0.699275-15.37921-3.849659-18.52555-3.150383-3.14635-8.74718-3.84334-18.544517-3.84334z" style="fill:#4d4d4d"/>
  <path d="m1.5017313 269.93387v0.53942c0 9.78815 0.699276 15.3792 3.849657 18.52555 3.150387 3.14636 8.7471787 3.84333 18.544517 3.84333h19.94152c9.797339 0 15.394134-0.69697 18.544517-3.84333 3.150384-3.14635 3.849659-8.7374 3.849659-18.52555v-0.53942c0 9.78815-0.699275 15.3792-3.849659 18.52555-3.150383 3.14636-8.747178 3.84334-18.544517 3.84334h-19.94152c-9.797338 0-15.39413-0.69698-18.544517-3.84334-3.150381-3.14635-3.849657-8.7374-3.849657-18.52555z" style="fill:#131313;opacity:.2"/>
  <path transform="matrix(.26458333 0 0 .26458333 0 229.26666)" d="m250.04297 84.818359c-0.09437-4.427251-0.0881-9.291675-0.31836-13.203125-0.21691-3.684631-0.50107-7.146805-0.86523-10.40039-0.36417-3.253586-0.80843-6.298071-1.34571-9.146485-0.53727-2.848413-1.16609-5.501588-1.90234-7.970703-0.73626-2.469115-1.57992-4.75345-2.54102-6.86914-0.96109-2.11569-2.04015-4.061471-3.25195-5.84961-1.2118-1.788138-2.55655-3.41979-4.04492-4.90625-1.48837-1.486464-3.11989-2.827003-4.91016-4.037109-1.79026-1.210106-3.73936-2.290381-5.85742-3.25s-4.40521-1.800153-6.87695-2.535156c-2.47175-0.735004-5.12718-1.364132-7.97852-1.900391s-5.89943-0.97841-9.15625-1.341797-6.72195-0.646895-10.41016-0.863281c-7.3764-0.432773-15.64111-0.597656-24.89843-0.597656h-75.371097c-9.257326 0-17.52203 0.164883-24.898437 0.597656-3.688204 0.216386-7.153336 0.499894-10.410157 0.863281s-6.304914 0.805538-9.15625 1.341797c-2.851335 0.536259-5.506767 1.165387-7.978515 1.900391-2.471748 0.735003-4.758895 1.575537-6.876953 2.535156-2.118059 0.959619-4.067156 2.039894-5.857422 3.25s-3.421785 2.550645-4.910157 4.037109c-1.488368 1.48646-2.833121 3.118112-4.044921 4.90625-1.211801 1.788139-2.290858 3.73392-3.251953 5.84961-0.961096 2.11569-1.804763 4.400025-2.541016 6.86914-0.7362536 2.469115-1.3650683 5.12229-1.9023439 7.970703-0.5372755 2.848414-0.9815419 5.892899-1.3457031 9.146485-0.3641612 3.253585-0.6483238 6.715759-0.8652344 10.40039-0.2302631 3.91145-0.2239909 8.775874-0.3183594 13.203125h244.08594z" style="fill:#63a535"/>
  <path transform="matrix(.13485389 0 0 .13485389 -4.9712557 261.01666)" d="M 361.9375,-212 C 507.2348,-212 528,-191.28677 528,-46.125 V 70.125 C 528,215.28618 507.2348,236 361.9375,236 H 214.0625 C 68.7652,236 48,215.28618 48,70.125 V -46.125 C 48,-191.28677 68.7652,-212 214.0625,-212 Z" clip-path="url(#clipPath1082-3-5)" style="fill:none;opacity:.4;stroke-linecap:round;stroke-linejoin:round;stroke-width:8;stroke:url(#linearGradient906)"/>
  <g transform="translate(1.8463968)">
   <g transform="translate(0 -.5004228)" style="filter:url(#filter2597);opacity:.3">
    <circle cx="50.811" cy="243.702" r="3.969"/>
    <path d="m50.809089 237.46593a5.3055526 5.3055526 0 0 0-5.289387 4.98183h0.454288a4.8811082 4.8811082 0 0 1 4.837172-4.26392 4.8811082 4.8811082 0 0 1 4.835926 4.26392h0.455947a5.3055526 5.3055526 0 0 0-5.293946-4.98183z"/>
    <path d="m50.8 240.37916-0.529167 1.05833h1.058334z"/>
   </g>
   <g transform="translate(0 -.5004228)">
    <circle cx="50.811" cy="243.702" r="3.969" style="fill:#b54032"/>
    <path d="m50.809089 237.46593a5.3055526 5.3055526 0 0 0-5.289387 4.98183h0.454288a4.8811082 4.8811082 0 0 1 4.837172-4.26392 4.8811082 4.8811082 0 0 1 4.835926 4.26392h0.455947a5.3055526 5.3055526 0 0 0-5.293946-4.98183z" style="fill:#4d4d4d"/>
    <path d="m50.8 240.37916-0.529167 1.05833h1.058334z" style="fill:#ffffff"/>
   </g>
  </g>
  <g transform="translate(.66145257)">
   <g transform="matrix(.8786608 0 0 .8786608 34.839363 38.51051)" style="filter:url(#filter1103);opacity:.3">
    <circle cx="-18.529" cy="265.361" r="14.949" style="fill-rule:evenodd"/>
    <path transform="matrix(1.584798,0,0,1.5847982,-57.999959,234.18504)" d="m24.90625 16.763672c-1.683492 0-2.892578 1.209086-2.892578 2.892578s1.234698 2.923828 2.892578 2.923828 2.892578-1.240336 2.892578-2.923828-1.209086-2.892578-2.892578-2.892578z" style="fill-rule:evenodd"/>
    <ellipse cx="-15.457" cy="273.995" rx="5.952" ry="5.664" style="opacity:.4"/>
   </g>
   <g transform="matrix(.8786608 0 0 .8786608 34.839363 38.51051)">
    <circle cx="-18.529" cy="265.361" r="14.949" style="fill-rule:evenodd;fill:url(#linearGradient997)"/>
    <path transform="matrix(1.584798,0,0,1.5847982,-57.999959,234.18504)" d="m24.90625 16.763672c-1.683492 0-2.892578 1.209086-2.892578 2.892578s1.234698 2.923828 2.892578 2.923828 2.892578-1.240336 2.892578-2.923828-1.209086-2.892578-2.892578-2.892578z" style="fill-rule:evenodd;fill:url(#linearGradient3344)"/>
   </g>
   <g transform="matrix(.8786608 0 0 .8786608 64.131736 38.51051)" style="filter:url(#filter1107);opacity:.3">
    <circle cx="-18.529" cy="265.361" r="14.949" style="fill-rule:evenodd"/>
    <path transform="matrix(1.584798,0,0,1.5847982,-57.999959,234.18504)" d="m24.90625 16.763672c-1.683492 0-2.892578 1.209086-2.892578 2.892578s1.234698 2.923828 2.892578 2.923828 2.892578-1.240336 2.892578-2.923828-1.209086-2.892578-2.892578-2.892578z" style="fill-rule:evenodd"/>
    <ellipse cx="-15.457" cy="273.995" rx="5.952" ry="5.664" style="opacity:.4"/>
   </g>
   <g transform="matrix(.8786608 0 0 .8786608 63.943548 38.51051)">
    <circle cx="-18.529" cy="265.361" r="14.949" style="fill-rule:evenodd;fill:url(#linearGradient997)"/>
    <path transform="matrix(1.584798,0,0,1.5847982,-57.999959,234.18504)" d="m24.90625 16.763672c-1.683492 0-2.892578 1.209086-2.892578 2.892578s1.234698 2.923828 2.892578 2.923828 2.892578-1.240336 2.892578-2.923828-1.209086-2.892578-2.892578-2.892578z" style="fill-rule:evenodd;fill:url(#linearGradient3344)"/>
   </g>
   <g transform="translate(0 -.66307242)">
    <circle cx="12.496" cy="242.731" r="3.575" style="fill:#4f4f4f"/>
    <circle cx="22.03" cy="242.731" r="3.575" style="fill:#4f4f4f"/>
    <circle cx="31.563" cy="242.731" r="3.575" style="fill:#4f4f4f"/>
   </g>
  </g>
  <path transform="matrix(.27831449 0 0 .26458333 -8.436593 222.91614)" d="m78.990234 70.001953c-35.36812-0.17299-38.992187 3.625145-38.992187 38.921877v1.07617h224v-1.07617c0-35.296732-3.62603-39.094867-38.99414-38.921877h-73.00586z" clip-path="url(#clipPath942-3)" style="fill:url(#linearGradient928);filter:url(#filter932);opacity:.5"/>
 </g>
</svg>

<svg xmlns="http://www.w3.org/2000/svg" xmlns:xlink="http://www.w3.org/1999/xlink" width="256" height="256" version="1.1" viewBox="0 0 67.73 67.73">
 <defs>
  <linearGradient id="linearGradient1121">
   <stop style="stop-color:#bbbbbb" offset="0"/>
   <stop style="stop-color:#fcfcfc" offset="1"/>
  </linearGradient>
  <linearGradient id="linearGradient1115">
   <stop style="stop-color:#adadad" offset="0"/>
   <stop style="stop-color:#929292" offset="1"/>
  </linearGradient>
  <linearGradient id="linearGradient1013">
   <stop style="stop-color:#ffffff" offset="0"/>
   <stop offset=".125" style="stop-color:#ffffff;stop-opacity:0.09803922"/>
   <stop offset=".925" style="stop-color:#000000;stop-opacity:0.09803922"/>
   <stop style="stop-color:#000000;stop-opacity:0.49803922" offset="1"/>
  </linearGradient>
  <clipPath id="clipPath1082-3-5" clipPathUnits="userSpaceOnUse">
   <path style="fill:#8c59d9" d="M 361.9375,-212 C 507.2348,-212 528,-191.28677 528,-46.125 V 70.125 C 528,215.28618 507.2348,236 361.9375,236 H 214.0625 C 68.7652,236 48,215.28618 48,70.125 V -46.125 C 48,-191.28677 68.7652,-212 214.0625,-212 Z"/>
  </clipPath>
  <filter id="filter4569-2" width="1.023" height="1.025" x="-.01" y="-.01" style="color-interpolation-filters:sRGB">
   <feGaussianBlur stdDeviation="1.16"/>
  </filter>
  <filter id="filter913" width="1.046" height="1.05" x="-.02" y="-.03" style="color-interpolation-filters:sRGB">
   <feGaussianBlur stdDeviation="2.32"/>
  </filter>
  <linearGradient id="linearGradient906" x1="296" x2="296" y1="-212" y2="236" gradientUnits="userSpaceOnUse" xlink:href="#linearGradient1013"/>
  <filter id="filter2597" width="1.265" height="1.275" x="-.13" y="-.14" style="color-interpolation-filters:sRGB">
   <feGaussianBlur stdDeviation=".584"/>
  </filter>
  <linearGradient id="linearGradient3344" x1="23.869" x2="26.22" y1="17.664" y2="21.333" gradientUnits="userSpaceOnUse" xlink:href="#linearGradient1115"/>
  <linearGradient id="linearGradient997" x1="23.544" x2="27.572" y1="14.335" y2="27.696" gradientTransform="matrix(1.6534874,0,0,1.6534875,-59.700849,232.84478)" gradientUnits="userSpaceOnUse" xlink:href="#linearGradient1121"/>
  <filter id="filter1103" width="1.15" height="1.15" x="-.07" y="-.07" style="color-interpolation-filters:sRGB">
   <feGaussianBlur stdDeviation=".931"/>
  </filter>
  <filter id="filter1107" width="1.15" height="1.15" x="-.07" y="-.07" style="color-interpolation-filters:sRGB">
   <feGaussianBlur stdDeviation=".931"/>
  </filter>
  <linearGradient id="linearGradient1142" x1="23.544" x2="27.572" y1="14.335" y2="27.696" gradientTransform="matrix(1.6534874,0,0,1.6534875,-59.700849,232.84478)" gradientUnits="userSpaceOnUse" xlink:href="#linearGradient1121"/>
  <linearGradient id="linearGradient1144" x1="23.869" x2="26.22" y1="17.664" y2="21.333" gradientUnits="userSpaceOnUse" xlink:href="#linearGradient1115"/>
  <linearGradient id="linearGradient928" x1="39.998" x2="263.998" y1="91.998" y2="91.998" gradientUnits="userSpaceOnUse" xlink:href="#linearGradient926"/>
  <linearGradient id="linearGradient926">
   <stop offset="0" style="stop-color:#000000;stop-opacity:0.25877193"/>
   <stop style="stop-color:#000000" offset=".491"/>
   <stop offset="1" style="stop-color:#000000;stop-opacity:0"/>
  </linearGradient>
  <clipPath id="clipPath942-3" clipPathUnits="userSpaceOnUse">
   <path style="fill:url(#linearGradient946)" d="m 39.998047,108 v 113.08203 c 0,35.29672 3.623657,38.91992 38.992187,38.91992 h 73.007816 73.00586 c 35.36853,0 38.99414,-3.6232 38.99414,-38.91992 V 108 Z"/>
  </clipPath>
 </defs>
 <g transform="translate(0,-229.26666)">
  <path d="m 188.96876,45.999995 c 72.64865,0 83.03125,10.356615 83.03125,82.937505 v 58.125 c 0,72.58059 -10.3826,82.9375 -83.03125,82.9375 h -73.9375 C 42.382606,270 32.000006,259.64309 32.000006,187.0625 v -58.125 c 0,-72.58089 10.3826,-82.937505 83.031254,-82.937505 z" transform="matrix(0.26970778,0,0,0.26970778,-7.1289177,220.56049)" style="opacity:0.2;filter:url(#filter913)"/>
  <path style="opacity:0.1;filter:url(#filter4569-2)" d="m 188.96876,43.999995 c 72.64865,0 83.03125,10.356615 83.03125,82.937505 v 58.125 c 0,72.58059 -10.3826,82.9375 -83.03125,82.9375 h -73.9375 C 42.382606,268 32.000006,257.64309 32.000006,185.0625 v -58.125 c 0,-72.58089 10.3826,-82.937505 83.031254,-82.937505 z" transform="matrix(0.26970778,0,0,0.26970778,-7.1289177,220.56049)"/>
  <path d="m 23.895904,232.42763 c -9.797337,0 -15.3941292,0.69699 -18.5445162,3.84334 -3.150381,3.14634 -3.849657,8.73736 -3.849657,18.52555 v 15.67677 c 0,9.78815 0.699276,15.3792 3.849657,18.52555 3.150387,3.14636 8.7471782,3.84333 18.5445162,3.84333 h 19.94152 c 9.797339,0 15.394134,-0.69697 18.544517,-3.84333 3.150384,-3.14635 3.849659,-8.7374 3.849659,-18.52555 v -15.67677 c 0,-9.78819 -0.699275,-15.37921 -3.849659,-18.52555 -3.150383,-3.14635 -8.74718,-3.84334 -18.544517,-3.84334 z" style="fill:#4d4d4d"/>
  <path d="m 1.5017313,269.93387 v 0.53942 c 0,9.78815 0.699276,15.3792 3.849657,18.52555 3.150387,3.14636 8.7471787,3.84333 18.5445167,3.84333 h 19.94152 c 9.797339,0 15.394134,-0.69697 18.544517,-3.84333 3.150384,-3.14635 3.849659,-8.7374 3.849659,-18.52555 v -0.53942 c 0,9.78815 -0.699275,15.3792 -3.849659,18.52555 -3.150383,3.14636 -8.747178,3.84334 -18.544517,3.84334 h -19.94152 c -9.797338,0 -15.3941297,-0.69698 -18.5445167,-3.84334 -3.150381,-3.14635 -3.849657,-8.7374 -3.849657,-18.52555 z" style="opacity:0.2;fill:#131313"/>
  <path d="M 250.04297 84.818359 C 249.9486 80.391108 249.95487 75.526684 249.72461 71.615234 C 249.5077 67.930603 249.22354 64.468429 248.85938 61.214844 C 248.49521 57.961258 248.05095 54.916773 247.51367 52.068359 C 246.9764 49.219946 246.34758 46.566771 245.61133 44.097656 C 244.87507 41.628541 244.03141 39.344206 243.07031 37.228516 C 242.10922 35.112826 241.03016 33.167045 239.81836 31.378906 C 238.60656 29.590768 237.26181 27.959116 235.77344 26.472656 C 234.28507 24.986192 232.65355 23.645653 230.86328 22.435547 C 229.07302 21.225441 227.12392 20.145166 225.00586 19.185547 C 222.8878 18.225928 220.60065 17.385394 218.12891 16.650391 C 215.65716 15.915387 213.00173 15.286259 210.15039 14.75 C 207.29905 14.213741 204.25096 13.77159 200.99414 13.408203 C 197.73732 13.044816 194.27219 12.761308 190.58398 12.544922 C 183.20758 12.112149 174.94287 11.947266 165.68555 11.947266 L 90.314453 11.947266 C 81.057127 11.947266 72.792423 12.112149 65.416016 12.544922 C 61.727812 12.761308 58.26268 13.044816 55.005859 13.408203 C 51.749038 13.77159 48.700945 14.213741 45.849609 14.75 C 42.998274 15.286259 40.342842 15.915387 37.871094 16.650391 C 35.399346 17.385394 33.112199 18.225928 30.994141 19.185547 C 28.876082 20.145166 26.926985 21.225441 25.136719 22.435547 C 23.346453 23.645653 21.714934 24.986192 20.226562 26.472656 C 18.738194 27.959116 17.393441 29.590768 16.181641 31.378906 C 14.96984 33.167045 13.890783 35.112826 12.929688 37.228516 C 11.968592 39.344206 11.124925 41.628541 10.388672 44.097656 C 9.6524184 46.566771 9.0236037 49.219946 8.4863281 52.068359 C 7.9490526 54.916773 7.5047862 57.961258 7.140625 61.214844 C 6.7764638 64.468429 6.4923012 67.930603 6.2753906 71.615234 C 6.0451275 75.526684 6.0513997 80.391108 5.9570312 84.818359 L 250.04297 84.818359 z" transform="matrix(0.26458333,0,0,0.26458333,0,229.26666)" style="fill:#63a535"/>
  <path style="opacity:0.4;fill:none;stroke:url(#linearGradient906);stroke-width:8;stroke-linecap:round;stroke-linejoin:round" d="M 361.9375,-212 C 507.2348,-212 528,-191.28677 528,-46.125 V 70.125 C 528,215.28618 507.2348,236 361.9375,236 H 214.0625 C 68.7652,236 48,215.28618 48,70.125 V -46.125 C 48,-191.28677 68.7652,-212 214.0625,-212 Z" clip-path="url(#clipPath1082-3-5)" transform="matrix(0.13485389,0,0,0.13485389,-4.9712557,261.01666)"/>
  <g transform="translate(1.8463968)">
   <g style="filter:url(#filter2597);opacity:0.3" transform="translate(0,-0.5004228)">
    <circle cx="50.811" cy="243.702" r="3.969"/>
    <path d="m 50.809089,237.46593 a 5.3055526,5.3055526 0 0 0 -5.289387,4.98183 h 0.454288 a 4.8811082,4.8811082 0 0 1 4.837172,-4.26392 4.8811082,4.8811082 0 0 1 4.835926,4.26392 h 0.455947 a 5.3055526,5.3055526 0 0 0 -5.293946,-4.98183 z"/>
    <path d="m 50.8,240.37916 -0.529167,1.05833 h 1.058334 z"/>
   </g>
   <g transform="translate(0,-0.5004228)">
    <circle cx="50.811" cy="243.702" r="3.969" style="fill:#b54032"/>
    <path d="m 50.809089,237.46593 a 5.3055526,5.3055526 0 0 0 -5.289387,4.98183 h 0.454288 a 4.8811082,4.8811082 0 0 1 4.837172,-4.26392 4.8811082,4.8811082 0 0 1 4.835926,4.26392 h 0.455947 a 5.3055526,5.3055526 0 0 0 -5.293946,-4.98183 z" style="fill:#4d4d4d"/>
    <path d="m 50.8,240.37916 -0.529167,1.05833 h 1.058334 z" style="fill:#ffffff"/>
   </g>
  </g>
  <g>
   <g transform="translate(0.66145257)">
    <g style="filter:url(#filter1103);opacity:0.3" transform="matrix(0.8786608,0,0,0.8786608,34.839363,38.51051)">
     <circle style="fill-rule:evenodd" cx="-18.529" cy="265.361" r="14.949"/>
     <path style="fill-rule:evenodd" d="m 24.90625,16.763672 c -1.683492,0 -2.892578,1.209086 -2.892578,2.892578 0,1.683492 1.234698,2.923828 2.892578,2.923828 1.65788,0 2.892578,-1.240336 2.892578,-2.923828 0,-1.683492 -1.209086,-2.892578 -2.892578,-2.892578 z" transform="matrix(1.584798,0,0,1.5847982,-57.999959,234.18504)"/>
     <ellipse style="opacity:0.4" cx="-15.457" cy="273.995" rx="5.952" ry="5.664"/>
    </g>
    <g transform="matrix(0.8786608,0,0,0.8786608,34.839363,38.51051)">
     <circle cx="-18.529" cy="265.361" r="14.949" style="fill:url(#linearGradient997);fill-rule:evenodd"/>
     <path d="m 24.90625,16.763672 c -1.683492,0 -2.892578,1.209086 -2.892578,2.892578 0,1.683492 1.234698,2.923828 2.892578,2.923828 1.65788,0 2.892578,-1.240336 2.892578,-2.923828 0,-1.683492 -1.209086,-2.892578 -2.892578,-2.892578 z" transform="matrix(1.584798,0,0,1.5847982,-57.999959,234.18504)" style="fill:url(#linearGradient3344);fill-rule:evenodd"/>
    </g>
    <g style="filter:url(#filter1107);opacity:0.3" transform="matrix(0.8786608,0,0,0.8786608,64.131736,38.51051)">
     <circle cx="-18.529" cy="265.361" r="14.949" style="fill-rule:evenodd"/>
     <path d="m 24.90625,16.763672 c -1.683492,0 -2.892578,1.209086 -2.892578,2.892578 0,1.683492 1.234698,2.923828 2.892578,2.923828 1.65788,0 2.892578,-1.240336 2.892578,-2.923828 0,-1.683492 -1.209086,-2.892578 -2.892578,-2.892578 z" transform="matrix(1.584798,0,0,1.5847982,-57.999959,234.18504)" style="fill-rule:evenodd"/>
     <ellipse cx="-15.457" cy="273.995" rx="5.952" ry="5.664" style="opacity:0.4"/>
    </g>
    <g transform="matrix(0.8786608,0,0,0.8786608,63.943548,38.51051)">
     <circle style="fill:url(#linearGradient1142);fill-rule:evenodd" cx="-18.529" cy="265.361" r="14.949"/>
     <path style="fill:url(#linearGradient1144);fill-rule:evenodd" d="m 24.90625,16.763672 c -1.683492,0 -2.892578,1.209086 -2.892578,2.892578 0,1.683492 1.234698,2.923828 2.892578,2.923828 1.65788,0 2.892578,-1.240336 2.892578,-2.923828 0,-1.683492 -1.209086,-2.892578 -2.892578,-2.892578 z" transform="matrix(1.584798,0,0,1.5847982,-57.999959,234.18504)"/>
    </g>
    <g transform="translate(0,-0.66307242)">
     <circle style="fill:#4f4f4f" cx="12.496" cy="242.731" r="3.575"/>
     <circle style="fill:#4f4f4f" cx="22.03" cy="242.731" r="3.575"/>
     <circle style="fill:#4f4f4f" cx="31.563" cy="242.731" r="3.575"/>
    </g>
   </g>
  </g>
  <path style="opacity:0.5;fill:url(#linearGradient928);filter:url(#filter932)" d="M 78.990234,70.001953 C 43.622114,69.828963 39.998047,73.627098 39.998047,108.92383 V 110 H 263.99805 v -1.07617 c 0,-35.296732 -3.62603,-39.094867 -38.99414,-38.921877 h -73.00586 z" clip-path="url(#clipPath942-3)" transform="matrix(0.27831449,0,0,0.26458333,-8.436593,222.91614)"/>
 </g>
</svg>
